; generated by Slic3r 1.0.0RC3 on 2014-03-22 at 23:29:18

; layer_height = 0.2
; perimeters = 3
; top_solid_layers = 3
; bottom_solid_layers = 3
; fill_density = 1
; perimeter_speed = 100
; infill_speed = 100
; travel_speed = 130
; nozzle_diameter = 0.35
; filament_diameter = 1.75
; extrusion_multiplier = 1
; perimeters extrusion width = 0.35mm
; infill extrusion width = 0.52mm
; solid infill extrusion width = 0.52mm
; top infill extrusion width = 0.52mm

G21 ; set units to millimeters
M107
M190 S110 ; wait for bed temperature to be reached
M104 S235 ; set temperature
G28 ; home all axes
G1 Z5 F5000 ; lift nozzle
M109 S235 ; wait for temperature to be reached
G90 ; use absolute coordinates
G92 E0
M82 ; use absolute distances for extrusion
G1 F1800.000 E-0.30000
G92 E0
G1 Z0.180 F7800.000
G1 X65.290 Y61.230 F7800.000
G1 E0.30000 F1800.000
G1 X65.730 Y60.790 E0.31630 F3000.000
G1 X66.520 Y60.080 E0.34412
G1 X67.000 Y59.690 E0.36032
G1 X67.870 Y59.060 E0.38845
G1 X68.390 Y58.720 E0.40473
G1 X69.420 Y58.120 E0.43595
G1 X70.660 Y57.530 E0.47191
G1 X71.050 Y57.370 E0.48296
G1 X71.960 Y57.050 E0.50822
G1 X72.550 Y56.870 E0.52438
G1 X73.540 Y56.620 E0.55112
G1 X74.600 Y56.430 E0.57933
G1 X75.200 Y56.350 E0.59518
G1 X76.320 Y56.260 E0.62461
G1 X76.740 Y56.250 E0.63562
G1 X121.000 Y56.250 E1.79489
G1 X122.120 Y56.290 E1.82425
G1 X123.120 Y56.390 E1.85057
G1 X123.730 Y56.480 E1.86672
G1 X124.890 Y56.720 E1.89775
G1 X125.490 Y56.880 E1.91401
G1 X126.710 Y57.280 E1.94764
G1 X127.900 Y57.790 E1.98155
G1 X128.610 Y58.140 E2.00228
G1 X129.150 Y58.440 E2.01846
G1 X130.090 Y59.030 E2.04753
G1 X130.600 Y59.390 E2.06388
G1 X131.420 Y60.040 E2.09129
G1 X131.880 Y60.440 E2.10726
G1 X132.530 Y61.060 E2.13078
G1 X133.410 Y62.020 E2.16489
G1 X133.800 Y62.500 E2.18109
G1 X134.380 Y63.290 E2.20676
G1 X134.720 Y63.800 E2.22282
G1 X135.370 Y64.910 E2.25651
G1 X135.650 Y65.470 E2.27291
G1 X136.050 Y66.370 E2.29870
G1 X136.270 Y66.940 E2.31471
G1 X136.610 Y68.000 E2.34386
G1 X136.770 Y68.600 E2.36013
G1 X137.010 Y69.760 E2.39116
G1 X137.100 Y70.370 E2.40731
G1 X137.190 Y71.200 E2.42917
G1 X137.230 Y71.810 E2.44519
G1 X137.250 Y72.490 E2.46300
G1 X137.250 Y107.500 E3.38000
G1 X137.220 Y108.410 E3.40385
G1 X137.140 Y109.320 E3.42777
G1 X136.990 Y110.350 E3.45504
G1 X136.870 Y110.950 E3.47106
G1 X136.620 Y111.940 E3.49781
G1 X136.440 Y112.530 E3.51396
G1 X136.080 Y113.530 E3.54180
G1 X135.840 Y114.100 E3.55800
G1 X135.450 Y114.910 E3.58155
G1 X134.870 Y115.950 E3.61274
G1 X134.230 Y116.920 E3.64318
G1 X133.570 Y117.780 E3.67157
G1 X132.820 Y118.630 E3.70126
G1 X132.150 Y119.310 E3.72626
G1 X131.850 Y119.590 E3.73701
G1 X131.040 Y120.270 E3.76471
G1 X130.260 Y120.840 E3.79002
G1 X129.260 Y121.490 E3.82126
G1 X128.300 Y122.010 E3.84985
G1 X127.330 Y122.460 E3.87786
G1 X126.940 Y122.620 E3.88890
G1 X125.890 Y122.990 E3.91806
G1 X125.130 Y123.210 E3.93879
G1 X124.000 Y123.470 E3.96916
G1 X123.600 Y123.540 E3.97979
G1 X122.410 Y123.680 E4.01118
G1 X121.500 Y123.740 E4.03506
G1 X76.990 Y123.750 E5.20088
G1 X75.700 Y123.690 E5.23471
G1 X74.870 Y123.600 E5.25658
G1 X74.260 Y123.510 E5.27273
G1 X73.100 Y123.270 E5.30375
G1 X72.500 Y123.110 E5.32002
G1 X71.450 Y122.770 E5.34893
G1 X70.670 Y122.460 E5.37091
G1 X70.300 Y122.300 E5.38147
G1 X69.490 Y121.900 E5.40513
G1 X68.420 Y121.290 E5.43739
G1 X67.910 Y120.960 E5.45330
G1 X67.000 Y120.300 E5.48275
G1 X66.520 Y119.910 E5.49894
G1 X65.730 Y119.200 E5.52676
G1 X65.290 Y118.760 E5.54306
G1 X64.580 Y117.970 E5.57088
G1 X64.190 Y117.490 E5.58708
G1 X63.480 Y116.510 E5.61878
G1 X63.150 Y115.990 E5.63491
G1 X62.670 Y115.140 E5.66048
G1 X62.390 Y114.590 E5.67664
G1 X61.910 Y113.530 E5.70712
G1 X61.630 Y112.780 E5.72809
G1 X61.500 Y112.390 E5.73886
G1 X61.180 Y111.230 E5.77038
G1 X60.950 Y110.100 E5.80058
G1 X60.830 Y109.150 E5.82566
G1 X60.780 Y108.530 E5.84195
G1 X60.750 Y107.700 E5.86371
G1 X60.750 Y72.240 E6.79249
G1 X60.810 Y71.080 E6.82291
G1 X60.850 Y70.670 E6.83370
G1 X61.000 Y69.640 E6.86096
G1 X61.120 Y69.040 E6.87699
G1 X61.290 Y68.330 E6.89611
G1 X61.400 Y67.930 E6.90698
G1 X61.760 Y66.850 E6.93680
G1 X62.300 Y65.560 E6.97343
G1 X62.800 Y64.580 E7.00224
G1 X63.000 Y64.230 E7.01280
G1 X63.530 Y63.400 E7.03859
G1 X63.890 Y62.890 E7.05495
G1 X64.420 Y62.210 E7.07753
G1 X65.255 Y61.269 E7.11048
G1 F1800.000 E6.81048
G92 E0
G1 X81.325 Y97.425 F7800.000
G1 E0.30000 F1800.000
G1 X116.675 Y97.425 E1.22590 F3000.000
G1 X116.675 Y99.525 E1.28090
G1 X118.775 Y99.525 E1.33591
G1 X118.775 Y105.475 E1.49175
G1 X116.675 Y105.475 E1.54676
G1 X116.675 Y107.575 E1.60176
G1 X81.325 Y107.575 E2.52766
G1 X81.325 Y105.475 E2.58266
G1 X79.225 Y105.475 E2.63767
G1 X79.225 Y99.525 E2.79351
G1 X81.325 Y99.525 E2.84852
G1 X81.325 Y97.477 E2.90215
G1 X81.675 Y97.775 F7800.000
G1 X116.325 Y97.775 E3.80971 F3000.000
G1 X116.325 Y99.875 E3.86471
G1 X118.425 Y99.875 E3.91972
G1 X118.425 Y105.125 E4.05723
G1 X116.325 Y105.125 E4.11223
G1 X116.325 Y107.225 E4.16724
G1 X81.675 Y107.225 E5.07480
G1 X81.675 Y105.125 E5.12981
G1 X79.575 Y105.125 E5.18481
G1 X79.575 Y99.875 E5.32232
G1 X81.675 Y99.875 E5.37732
G1 X81.675 Y97.827 E5.43095
G1 X82.025 Y98.125 F7800.000
G1 X115.975 Y98.125 E6.32018 F1800.000
G1 X115.975 Y100.225 E6.37519
G1 X118.075 Y100.225 E6.43019
G1 X118.075 Y104.775 E6.54937
G1 X115.975 Y104.775 E6.60437
G1 X115.975 Y106.875 E6.65937
G1 X82.025 Y106.875 E7.54860
G1 X82.025 Y104.775 E7.60361
G1 X79.925 Y104.775 E7.65861
G1 X79.925 Y100.225 E7.77779
G1 X82.025 Y100.225 E7.83279
G1 X82.025 Y98.177 E7.88642
G1 X82.025 Y97.775 F7800.000
G1 X77.008 Y96.475 F7800.000
G1 X120.992 Y96.475 E9.03844 F3000.000
G1 X121.525 Y96.502 E9.05245
G1 X122.214 Y96.624 E9.07076
G1 X122.883 Y96.842 E9.08918
G1 X123.513 Y97.148 E9.10753
G1 X123.953 Y97.435 E9.12130
G1 X124.489 Y97.884 E9.13961
G1 X124.735 Y98.138 E9.14887
G1 X124.959 Y98.407 E9.15803
G1 X125.352 Y98.987 E9.17640
G1 X125.590 Y99.455 E9.19015
G1 X125.830 Y100.116 E9.20856
G1 X125.977 Y100.802 E9.22694
G1 X126.013 Y101.148 E9.23603
G1 X126.025 Y101.509 E9.24550
G1 X126.021 Y107.676 E9.40704
G1 X125.977 Y108.198 E9.42075
G1 X125.876 Y108.714 E9.43453
G1 X125.722 Y109.218 E9.44834
G1 X125.590 Y109.545 E9.45756
G1 X125.262 Y110.162 E9.47587
G1 X125.065 Y110.453 E9.48508
G1 X124.735 Y110.862 E9.49883
G1 X124.231 Y111.348 E9.51718
G1 X123.953 Y111.565 E9.52640
G1 X123.513 Y111.852 E9.54018
G1 X122.883 Y112.158 E9.55853
G1 X122.214 Y112.376 E9.57694
G1 X121.698 Y112.477 E9.59072
G1 X121.353 Y112.513 E9.59982
G1 X77.009 Y112.525 E10.76129
G1 X76.475 Y112.498 E10.77530
G1 X75.786 Y112.376 E10.79362
G1 X75.282 Y112.222 E10.80743
G1 X74.955 Y112.090 E10.81664
G1 X74.640 Y111.936 E10.82584
G1 X74.047 Y111.565 E10.84416
G1 X73.638 Y111.235 E10.85791
G1 X73.152 Y110.731 E10.87627
G1 X72.738 Y110.162 E10.89469
G1 X72.410 Y109.545 E10.91300
G1 X72.222 Y109.053 E10.92679
G1 X72.124 Y108.714 E10.93603
G1 X72.052 Y108.372 E10.94518
G1 X72.002 Y108.025 E10.95436
G1 X71.979 Y107.676 E10.96352
G1 X71.987 Y101.148 E11.13453
G1 X72.023 Y100.802 E11.14362
G1 X72.124 Y100.286 E11.15740
G1 X72.278 Y99.782 E11.17121
G1 X72.410 Y99.455 E11.18043
G1 X72.648 Y98.987 E11.19418
G1 X72.935 Y98.546 E11.20796
G1 X73.265 Y98.138 E11.22171
G1 X73.511 Y97.884 E11.23097
G1 X73.907 Y97.541 E11.24469
G1 X74.338 Y97.238 E11.25850
G1 X74.799 Y96.983 E11.27228
G1 X75.117 Y96.842 E11.28141
G1 X75.447 Y96.722 E11.29060
G1 X75.954 Y96.585 E11.30436
G1 X76.474 Y96.502 E11.31816
G1 X76.956 Y96.476 E11.33079
G1 X71.834 Y100.019 F7800.000
G1 X71.949 Y99.662 E11.34064 F3000.000
G1 X72.090 Y99.313 E11.35048
G1 X72.255 Y98.976 E11.36031
G1 X72.442 Y98.652 E11.37011
G1 X72.652 Y98.341 E11.37995
G1 X73.005 Y97.904 E11.39466
G1 X73.267 Y97.633 E11.40454
G1 X73.545 Y97.383 E11.41432
G1 X73.841 Y97.152 E11.42416
G1 X74.312 Y96.845 E11.43890
G1 X74.645 Y96.669 E11.44875
G1 X74.986 Y96.517 E11.45854
G1 X75.339 Y96.389 E11.46836
G1 X75.701 Y96.284 E11.47823
G1 X76.253 Y96.177 E11.49296
G1 X76.624 Y96.138 E11.50273
G1 X77.005 Y96.125 E11.51272
G1 X120.995 Y96.125 E12.66492
G1 X121.376 Y96.138 E12.67492
G1 X121.747 Y96.177 E12.68468
G1 X122.118 Y96.243 E12.69456
G1 X122.481 Y96.334 E12.70434
G1 X122.838 Y96.449 E12.71418
G1 X123.187 Y96.590 E12.72403
G1 X123.524 Y96.755 E12.73386
G1 X123.848 Y96.942 E12.74365
G1 X124.159 Y97.152 E12.75349
G1 X124.455 Y97.383 E12.76333
G1 X124.733 Y97.633 E12.77311
G1 X124.995 Y97.904 E12.78299
G1 X125.348 Y98.341 E12.79770
G1 X125.558 Y98.652 E12.80754
G1 X125.745 Y98.976 E12.81733
G1 X125.910 Y99.313 E12.82717
G1 X126.051 Y99.662 E12.83701
G1 X126.166 Y100.019 E12.84685
G1 X126.257 Y100.382 E12.85664
G1 X126.346 Y100.938 E12.87139
G1 X126.371 Y101.312 E12.88121
G1 X126.375 Y107.495 E13.04316
G1 X126.362 Y107.876 E13.05315
G1 X126.323 Y108.247 E13.06292
G1 X126.216 Y108.799 E13.07766
G1 X126.111 Y109.161 E13.08752
G1 X125.983 Y109.514 E13.09734
G1 X125.831 Y109.855 E13.10713
G1 X125.655 Y110.188 E13.11699
G1 X125.348 Y110.659 E13.13173
G1 X124.995 Y111.096 E13.14644
G1 X124.733 Y111.367 E13.15632
G1 X124.455 Y111.617 E13.16610
G1 X124.005 Y111.956 E13.18085
G1 X123.688 Y112.155 E13.19068
G1 X123.187 Y112.410 E13.20539
G1 X122.838 Y112.551 E13.21524
G1 X122.299 Y112.716 E13.23000
G1 X121.933 Y112.793 E13.23980
G1 X121.562 Y112.846 E13.24962
G1 X120.995 Y112.875 E13.26450
G1 X77.005 Y112.875 E14.41669
G1 X76.624 Y112.862 E14.42669
G1 X76.253 Y112.823 E14.43645
G1 X75.882 Y112.757 E14.44633
G1 X75.519 Y112.666 E14.45612
G1 X75.162 Y112.551 E14.46596
G1 X74.813 Y112.410 E14.47580
G1 X74.476 Y112.245 E14.48563
G1 X74.152 Y112.058 E14.49543
G1 X73.841 Y111.848 E14.50527
G1 X73.545 Y111.617 E14.51511
G1 X73.267 Y111.367 E14.52488
G1 X73.005 Y111.096 E14.53476
G1 X72.652 Y110.659 E14.54948
G1 X72.442 Y110.348 E14.55931
G1 X72.255 Y110.024 E14.56911
G1 X72.090 Y109.687 E14.57894
G1 X71.949 Y109.338 E14.58878
G1 X71.784 Y108.799 E14.60355
G1 X71.707 Y108.433 E14.61335
G1 X71.638 Y107.876 E14.62805
G1 X71.625 Y107.495 E14.63804
G1 X71.629 Y101.312 E14.79999
G1 X71.677 Y100.753 E14.81469
G1 X71.820 Y100.070 E14.83296
G1 X71.495 Y99.932 F7800.000
G1 X71.620 Y99.542 E14.84369 F1800.000
G1 X71.770 Y99.171 E14.85416
G1 X71.946 Y98.812 E14.86463
G1 X72.145 Y98.466 E14.87510
G1 X72.369 Y98.135 E14.88556
G1 X72.745 Y97.669 E14.90124
G1 X73.024 Y97.382 E14.91173
G1 X73.320 Y97.114 E14.92219
G1 X73.635 Y96.869 E14.93264
G1 X74.137 Y96.542 E14.94835
G1 X74.491 Y96.354 E14.95883
G1 X74.855 Y96.192 E14.96927
G1 X75.231 Y96.056 E14.97974
G1 X75.616 Y95.945 E14.99022
G1 X76.204 Y95.830 E15.00592
G1 X76.600 Y95.789 E15.01635
G1 X77.002 Y95.775 E15.02688
G1 X120.998 Y95.775 E16.17926
G1 X121.400 Y95.789 E16.18979
G1 X121.796 Y95.830 E16.20023
G1 X122.191 Y95.900 E16.21072
G1 X122.578 Y95.997 E16.22116
G1 X122.958 Y96.120 E16.23164
G1 X123.329 Y96.270 E16.24211
G1 X123.863 Y96.542 E16.25779
G1 X124.201 Y96.754 E16.26826
G1 X124.524 Y96.989 E16.27873
G1 X124.831 Y97.245 E16.28919
G1 X125.118 Y97.524 E16.29968
G1 X125.386 Y97.820 E16.31013
G1 X125.631 Y98.135 E16.32059
G1 X125.958 Y98.637 E16.33630
G1 X126.146 Y98.991 E16.34677
G1 X126.308 Y99.355 E16.35722
G1 X126.444 Y99.731 E16.36769
G1 X126.600 Y100.309 E16.38337
G1 X126.694 Y100.901 E16.39907
G1 X126.721 Y101.300 E16.40954
G1 X126.725 Y107.498 E16.57189
G1 X126.711 Y107.900 E16.58242
G1 X126.670 Y108.296 E16.59286
G1 X126.555 Y108.884 E16.60855
G1 X126.444 Y109.269 E16.61903
G1 X126.308 Y109.645 E16.62950
G1 X126.146 Y110.009 E16.63995
G1 X125.958 Y110.363 E16.65042
G1 X125.631 Y110.865 E16.66613
G1 X125.255 Y111.331 E16.68181
G1 X124.976 Y111.618 E16.69230
G1 X124.680 Y111.886 E16.70276
G1 X124.201 Y112.246 E16.71845
G1 X123.863 Y112.458 E16.72892
G1 X123.329 Y112.730 E16.74460
G1 X122.958 Y112.880 E16.75508
G1 X122.384 Y113.055 E16.77079
G1 X121.994 Y113.138 E16.78123
G1 X121.599 Y113.194 E16.79170
G1 X120.998 Y113.225 E16.80745
G1 X77.002 Y113.225 E17.95982
G1 X76.600 Y113.211 E17.97035
G1 X76.204 Y113.170 E17.98079
G1 X75.809 Y113.100 E17.99128
G1 X75.422 Y113.003 E18.00172
G1 X75.042 Y112.880 E18.01220
G1 X74.671 Y112.730 E18.02267
G1 X74.312 Y112.554 E18.03314
G1 X73.966 Y112.355 E18.04361
G1 X73.635 Y112.131 E18.05407
G1 X73.320 Y111.886 E18.06453
G1 X73.024 Y111.618 E18.07498
G1 X72.745 Y111.331 E18.08547
G1 X72.369 Y110.865 E18.10115
G1 X72.145 Y110.534 E18.11162
G1 X71.946 Y110.188 E18.12208
G1 X71.770 Y109.829 E18.13255
G1 X71.620 Y109.458 E18.14302
G1 X71.445 Y108.884 E18.15873
G1 X71.362 Y108.494 E18.16918
G1 X71.289 Y107.900 E18.18486
G1 X71.275 Y107.498 E18.19539
G1 X71.279 Y101.300 E18.35774
G1 X71.330 Y100.704 E18.37342
G1 X71.481 Y99.982 E18.39272
G1 X71.834 Y99.847 F7800.000
G1 X80.460 Y99.252 F7800.000
G1 X77.956 Y96.748 E18.52042 F3000.000
G1 X77.274 Y96.748 E18.54501
G1 X79.778 Y99.252 E18.67272
G1 X79.096 Y99.252 E18.69731
G1 X76.612 Y96.767 E18.82406
G1 X76.017 Y96.854 E18.84573
G1 X78.952 Y99.789 E18.99542
G1 X78.952 Y100.470 E19.02001
G1 X75.483 Y97.002 E19.19693
G1 X74.996 Y97.196 E19.21586
G1 X78.952 Y101.152 E19.41767
G1 X78.952 Y101.834 E19.44226
G1 X74.551 Y97.433 E19.66676
G1 X74.144 Y97.708 E19.68447
G1 X78.952 Y102.515 E19.92972
G1 X78.952 Y103.197 E19.95431
G1 X73.779 Y98.024 E20.21817
G1 X73.438 Y98.365 E20.23555
G1 X78.952 Y103.879 E20.51680
G1 X78.952 Y104.560 E20.54139
G1 X73.134 Y98.742 E20.83818
G1 X72.867 Y99.157 E20.85597
G1 X78.952 Y105.242 E21.16635
G1 X79.458 Y105.748 F7800.000
G1 X81.052 Y107.342 E21.24765 F3000.000
G1 X81.052 Y106.660 E21.27223
G1 X80.140 Y105.748 E21.31876
G1 X80.821 Y105.748 E21.34335
G1 X81.052 Y105.979 E21.35510
G1 F1800.000 E21.05510
G92 E0
G1 X81.052 Y99.162 F7800.000
G1 E0.30000 F1800.000
G1 X78.638 Y96.748 E0.42314 F3000.000
G1 X79.319 Y96.748 E0.44773
G1 X81.052 Y98.481 E0.53610
G1 X81.052 Y97.799 E0.56069
G1 X80.001 Y96.748 E0.61429
G1 X80.683 Y96.748 E0.63888
G1 X80.877 Y96.942 E0.64878
G1 X72.513 Y109.028 F7800.000
G1 X75.483 Y111.998 E0.80029 F3000.000
G1 X76.370 Y112.203 E0.83313
G1 X72.291 Y108.124 E1.04118
G1 X72.252 Y107.403 E1.06724
G1 X77.100 Y112.252 E1.31458
G1 X77.782 Y112.252 E1.33916
G1 X72.251 Y106.721 E1.62129
G1 X72.251 Y106.039 E1.64589
G1 X78.464 Y112.252 E1.96280
G1 X79.145 Y112.252 E1.98739
G1 X72.250 Y105.357 E2.33910
G1 X72.250 Y104.675 E2.36370
G1 X79.827 Y112.252 E2.75020
G1 X80.508 Y112.252 E2.77478
G1 X72.250 Y103.993 E3.19607
G1 X72.249 Y103.311 E3.22067
G1 X81.190 Y112.252 E3.67675
G1 X81.872 Y112.252 E3.70134
G1 X72.249 Y102.629 E4.19221
G1 X72.248 Y101.947 E4.21681
G1 X82.553 Y112.252 E4.74247
G1 X83.235 Y112.252 E4.76706
G1 X72.260 Y101.277 E5.32688
G1 X72.328 Y100.664 E5.34915
G1 X83.917 Y112.252 E5.94027
G1 X84.598 Y112.252 E5.96486
G1 X72.458 Y100.112 E6.58412
G1 X72.645 Y99.617 E6.60321
G1 X85.280 Y112.252 E7.24773
G1 X85.962 Y112.252 E7.27232
G1 X81.558 Y107.848 E7.49695
G1 X82.240 Y107.848 E7.52153
G1 X86.643 Y112.252 E7.74616
G1 X87.325 Y112.252 E7.77075
G1 X82.921 Y107.848 E7.99538
G1 X83.603 Y107.848 E8.01996
G1 X88.007 Y112.252 E8.24459
G1 X88.688 Y112.252 E8.26918
G1 X84.285 Y107.848 E8.49381
G1 X84.966 Y107.848 E8.51840
G1 X89.370 Y112.252 E8.74302
G1 X90.051 Y112.252 E8.76761
G1 X85.648 Y107.848 E8.99224
G1 X86.330 Y107.848 E9.01683
G1 X90.733 Y112.252 E9.24146
G1 X91.415 Y112.252 E9.26604
G1 X87.011 Y107.848 E9.49067
G1 X87.693 Y107.848 E9.51526
G1 X92.096 Y112.252 E9.73989
G1 X92.778 Y112.252 E9.76447
G1 X88.374 Y107.848 E9.98910
G1 X89.056 Y107.848 E10.01369
G1 X93.460 Y112.252 E10.23832
G1 X94.141 Y112.252 E10.26291
G1 X89.738 Y107.848 E10.48754
G1 X90.419 Y107.848 E10.51212
G1 X94.823 Y112.252 E10.73675
G1 X95.505 Y112.252 E10.76134
G1 X91.101 Y107.848 E10.98597
G1 X91.783 Y107.848 E11.01055
G1 X96.186 Y112.252 E11.23518
G1 X96.868 Y112.252 E11.25977
G1 X92.464 Y107.848 E11.48440
G1 X93.146 Y107.848 E11.50899
G1 X97.549 Y112.252 E11.73361
G1 X98.231 Y112.252 E11.75820
G1 X93.828 Y107.848 E11.98283
G1 X94.509 Y107.848 E12.00742
G1 X98.913 Y112.252 E12.23205
G1 X99.594 Y112.252 E12.25663
G1 X95.191 Y107.848 E12.48126
G1 X95.872 Y107.848 E12.50585
G1 X100.276 Y112.252 E12.73048
G1 X100.958 Y112.252 E12.75506
G1 X96.554 Y107.848 E12.97969
